.local/share/icons/Gruvbox-Plus-Dark/mimetypes/scalable/text-x-arduino.svg

<svg width="256" height="256" viewBox="0 0 256 256" fill="none" xmlns="http://www.w3.org/2000/svg">
<g opacity="0.4" filter="url(#filter0_f)">
<path d="M55.0839 15.5636H155.608L216.009 75.7129L216.011 224.609C216.011 233.52 208.749 240.737 199.838 240.737H55.0838C46.1734 240.737 39 233.564 39 224.654V31.6474C39 22.737 46.1734 15.5636 55.0838 15.5636H55.0839Z" fill="#282828"/>
</g>
<path d="M55.0839 15H155.608L216.009 75.1493L216.011 224.045C216.011 232.956 208.749 240.174 199.838 240.174H55.0838C46.1734 240.174 39 233 39 224.09V31.0838C39 22.1734 46.1734 15 55.0838 15H55.0839Z" fill="#ebdbb2"/>
<path opacity="0.2" d="M55.0839 15H155.608L216.009 75.1493L216.011 224.045C216.011 232.956 208.749 240.174 199.838 240.174H55.0838C46.1734 240.174 39 233 39 224.09V31.0838C39 22.1734 46.1734 15 55.0838 15H55.0839Z" fill="url(#paint0_linear)"/>
<path fill-rule="evenodd" clip-rule="evenodd" d="M155.609 22.9787H55.0839C50.58 22.9787 46.9787 26.5799 46.9787 31.0838V224.09C46.9787 228.594 50.5799 232.195 55.0838 232.195H199.838C204.371 232.195 208.032 228.521 208.032 224.046V75.1493L155.609 22.9787ZM155.608 15H55.0839C46.1735 15 39 22.1734 39 31.0838V224.09C39 233 46.1734 240.174 55.0838 240.174H199.838C208.749 240.174 216.011 232.956 216.011 224.045L216.009 75.1493L155.608 15Z" fill="url(#paint1_linear)"/>
<path d="M89.1059 130.58V124.76H106.904V130.58H89.1059ZM154.475 135.962V130.472H149.057V124.824H154.475V119.378H160.108V124.824H165.519V130.472H160.108V135.963H154.475V135.962Z" fill="url(#paint2_linear)"/>
<path fill-rule="evenodd" clip-rule="evenodd" d="M77.9861 128.477V128.481C77.9861 130.924 78.4902 133.343 79.4654 135.581C80.4319 137.782 81.8164 139.772 83.5411 141.438C85.3118 143.146 87.3886 144.5 89.6612 145.429C92.0998 146.424 94.7097 146.926 97.3413 146.904C97.8267 146.936 98.3122 146.951 98.8031 146.951C100.193 146.956 101.58 146.82 102.943 146.546C104.143 146.299 105.314 145.926 106.437 145.434C107.528 144.954 108.568 144.369 109.546 143.689C110.571 142.973 111.537 142.176 112.436 141.306C113.41 140.364 114.328 139.366 115.185 138.316C116.113 137.178 116.995 136.003 117.83 134.794C118.721 133.505 119.584 132.196 120.417 130.868C120.99 129.952 121.563 129.026 122.132 128.105L121.744 127.481C120.857 126.073 119.937 124.686 118.984 123.322C118.082 122.029 117.128 120.773 116.124 119.558C115.178 118.419 114.164 117.339 113.088 116.325C112.072 115.368 110.981 114.495 109.826 113.715C108.693 112.95 107.49 112.297 106.233 111.765C104.908 111.208 103.53 110.787 102.121 110.509C100.505 110.197 98.8623 110.044 97.2169 110.053C94.6268 110.048 92.0603 110.549 89.6601 111.528C87.3866 112.457 85.3099 113.814 83.5411 115.525C81.8156 117.189 80.4309 119.177 79.4654 121.377C78.4901 123.616 77.9864 126.033 77.9861 128.477V128.477ZM128.002 118.767C128.279 118.358 128.561 117.953 128.843 117.544C129.905 116.021 131.031 114.543 132.217 113.115C133.425 111.663 134.718 110.285 136.09 108.988C137.499 107.661 139.012 106.449 140.614 105.364C142.283 104.241 144.055 103.28 145.906 102.494C147.864 101.671 149.9 101.051 151.983 100.643C154.229 100.21 156.51 99.995 158.796 100C162.668 99.9966 166.504 100.749 170.091 102.215C173.54 103.621 176.69 105.677 179.372 108.272C182.039 110.846 184.18 113.922 185.671 117.325C187.208 120.841 188.002 124.64 188 128.481C188 132.319 187.21 136.12 185.671 139.633C184.178 143.037 182.039 146.114 179.372 148.69C176.687 151.282 173.538 153.338 170.091 154.747C166.54 156.194 162.747 156.944 158.916 156.957C158.352 156.985 157.784 157 157.22 157C155.159 157.008 153.102 156.805 151.082 156.395C149.19 156.008 147.344 155.423 145.573 154.65C143.888 153.907 142.278 153.002 140.766 151.947C139.307 150.928 137.93 149.794 136.649 148.555C135.39 147.339 134.205 146.049 133.099 144.69C132.003 143.349 130.961 141.964 129.975 140.539C129.301 139.563 128.644 138.576 128.002 137.58V118.767ZM178.017 128.481V128.477V128.481C178.017 130.924 177.513 133.343 176.533 135.581C175.567 137.782 174.182 139.772 172.458 141.438C170.688 143.147 168.611 144.502 166.338 145.429C163.901 146.425 161.292 146.926 158.662 146.904C158.171 146.936 157.687 146.951 157.201 146.951C155.811 146.956 154.423 146.82 153.06 146.546C151.86 146.3 150.689 145.927 149.566 145.434C148.475 144.954 147.435 144.369 146.457 143.689C145.431 142.973 144.463 142.176 143.562 141.306C142.592 140.363 141.675 139.365 140.818 138.316C139.889 137.179 139.008 136.004 138.174 134.794C137.281 133.506 136.418 132.197 135.586 130.868C135.007 129.952 134.44 129.026 133.871 128.105C134.872 126.48 135.92 124.886 137.013 123.322C137.915 122.027 138.872 120.772 139.88 119.558C140.824 118.419 141.836 117.339 142.911 116.325C143.927 115.368 145.018 114.495 146.173 113.715C147.307 112.951 148.512 112.298 149.77 111.765C151.093 111.208 152.47 110.787 153.878 110.509C155.494 110.197 157.136 110.045 158.782 110.053C161.37 110.049 163.94 110.548 166.339 111.528C168.613 112.456 170.69 113.813 172.458 115.525C174.183 117.189 175.568 119.177 176.533 121.377C177.512 123.615 178.017 126.032 178.017 128.477V128.481ZM128.002 118.767C127.723 118.357 127.441 117.949 127.156 117.544C126.095 116.021 124.971 114.543 123.786 113.115C122.579 111.663 121.285 110.285 119.913 108.988C118.503 107.661 116.988 106.449 115.385 105.364C113.716 104.242 111.946 103.281 110.097 102.494C108.138 101.671 106.1 101.051 104.016 100.643C101.772 100.21 99.4924 99.9951 97.2082 100C93.3362 99.9962 89.5002 100.748 85.9128 102.215C82.464 103.62 79.3139 105.676 76.6323 108.272C73.9616 110.845 71.8195 113.921 70.3279 117.325C68.7927 120.841 68 124.639 68 128.479C68 132.319 68.7927 136.117 70.3279 139.633C71.8206 143.038 73.9626 146.115 76.6323 148.69C79.3152 151.282 82.4626 153.338 85.9073 154.747C89.4615 156.195 93.2514 156.944 97.0827 156.957C97.6511 156.985 98.2151 157 98.7845 157C100.845 157.007 102.901 156.805 104.921 156.395C106.813 156.007 108.659 155.422 110.43 154.65C112.113 153.906 113.722 153.001 115.232 151.947C116.694 150.928 118.072 149.794 119.355 148.555C120.611 147.337 121.796 146.046 122.904 144.69C123.999 143.349 125.039 141.964 126.024 140.539C126.698 139.563 127.358 138.577 128.002 137.58" fill="url(#paint3_linear)"/>
<path opacity="0.25" d="M155.608 17V61.2306C155.608 70.141 162.867 77.1605 171.777 77.1605L216.009 77.1493V75.1493L155.608 17Z" fill="#282828"/>
<path d="M155.608 15V59.2306C155.608 68.141 162.867 75.1605 171.777 75.1605L216.009 75.1493L155.608 15Z" fill="url(#paint4_linear)"/>
<defs>
<filter id="filter0_f" x="23.8778" y="0.441412" width="207.255" height="255.418" filterUnits="userSpaceOnUse" color-interpolation-filters="sRGB">
<feFlood flood-opacity="0" result="BackgroundImageFix"/>
<feBlend mode="normal" in="SourceGraphic" in2="BackgroundImageFix" result="shape"/>
<feGaussianBlur stdDeviation="7.5611" result="effect1_foregroundBlur"/>
</filter>
<linearGradient id="paint0_linear" x1="126.411" y1="14.914" x2="127.127" y2="240.916" gradientUnits="userSpaceOnUse">
<stop stop-color="#83a598"/>
<stop offset="1" stop-color="#458588"/>
</linearGradient>
<linearGradient id="paint1_linear" x1="126.411" y1="14.914" x2="127.127" y2="240.916" gradientUnits="userSpaceOnUse">
<stop stop-color="#83a598"/>
<stop offset="1" stop-color="#458588"/>
</linearGradient>
<linearGradient id="paint2_linear" x1="126.84" y1="119.371" x2="126.849" y2="136.018" gradientUnits="userSpaceOnUse">
<stop stop-color="#83a598"/>
<stop offset="1" stop-color="#458588"/>
</linearGradient>
<linearGradient id="paint3_linear" x1="127.258" y1="99.9782" x2="127.326" y2="157.188" gradientUnits="userSpaceOnUse">
<stop stop-color="#83a598"/>
<stop offset="1" stop-color="#458588"/>
</linearGradient>
<linearGradient id="paint4_linear" x1="185.435" y1="14.977" x2="185.585" y2="75.3591" gradientUnits="userSpaceOnUse">
<stop stop-color="#83a598"/>
<stop offset="1" stop-color="#458588"/>
</linearGradient>
</defs>
</svg>

<svg width="256" height="256" fill="none" version="1.1" viewBox="0 0 256 256" xmlns="http://www.w3.org/2000/svg">
  <path d="m55.08 15h100.5l60.4 60.15 2e-3 148.9c0 8.911-7.262 16.13-16.17 16.13h-144.8c-8.91 0-16.08-7.174-16.08-16.08v-193c0-8.91 7.173-16.08 16.08-16.08h1e-4z" fill="#ebdbb2"/>
  <path d="m55.08 15h100.5l60.4 60.15 2e-3 148.9c0 8.911-7.262 16.13-16.17 16.13h-144.8c-8.91 0-16.08-7.174-16.08-16.08v-193c0-8.91 7.173-16.08 16.08-16.08h1e-4z" fill="url(#paint0_linear)" opacity=".2"/>
  <path d="m155.6 22.98h-100.5c-4.504 0-8.105 3.601-8.105 8.105v193c0 4.504 3.601 8.105 8.105 8.105h144.8c4.533 0 8.194-3.674 8.194-8.149v-148.9l-52.42-52.17zm-1e-3 -7.979h-100.5c-8.91 0-16.08 7.173-16.08 16.08v193c0 8.91 7.173 16.08 16.08 16.08h144.8c8.911 0 16.17-7.218 16.17-16.13l-2e-3 -148.9-60.4-60.15z" clip-rule="evenodd" fill="url(#paint0_linear)" fill-rule="evenodd"/>
  <path d="m89.11 130.6v-5.82h17.8v5.82h-17.8zm65.37 5.382v-5.49h-5.418v-5.648h5.418v-5.446h5.633v5.446h5.411v5.648h-5.411v5.491h-5.633v-1e-3z" fill="url(#paint2_linear)"/>
  <path d="m77.99 128.5v4e-3c0 2.443 0.5041 4.862 1.479 7.1 0.9665 2.201 2.351 4.191 4.076 5.857 1.771 1.708 3.848 3.062 6.12 3.991 2.439 0.995 5.048 1.497 7.68 1.475 0.4854 0.032 0.9709 0.047 1.462 0.047 1.39 5e-3 2.777-0.131 4.14-0.405 1.2-0.247 2.371-0.62 3.494-1.112 1.091-0.48 2.131-1.065 3.109-1.745 1.025-0.716 1.991-1.513 2.89-2.383 0.974-0.942 1.892-1.94 2.749-2.99 0.928-1.138 1.81-2.313 2.645-3.522 0.891-1.289 1.754-2.598 2.587-3.926 0.573-0.916 1.146-1.842 1.715-2.763l-0.388-0.624c-0.887-1.408-1.807-2.795-2.76-4.159-0.902-1.293-1.856-2.549-2.86-3.764-0.946-1.139-1.96-2.219-3.036-3.233-1.016-0.957-2.107-1.83-3.262-2.61-1.133-0.765-2.336-1.418-3.593-1.95-1.325-0.557-2.703-0.978-4.112-1.256-1.616-0.312-3.259-0.465-4.904-0.456-2.59-5e-3 -5.157 0.496-7.557 1.475-2.274 0.929-4.35 2.286-6.119 3.997-1.726 1.664-3.11 3.652-4.076 5.852-0.9753 2.239-1.479 4.656-1.479 7.1zm50.02-9.71c0.277-0.409 0.559-0.814 0.841-1.223 1.062-1.523 2.188-3.001 3.374-4.429 1.208-1.452 2.501-2.83 3.873-4.127 1.409-1.327 2.922-2.539 4.524-3.624 1.669-1.123 3.441-2.084 5.292-2.87 1.958-0.823 3.994-1.443 6.077-1.851 2.246-0.433 4.527-0.648 6.813-0.643 3.872-0.0034 7.708 0.749 11.3 2.215 3.449 1.406 6.599 3.462 9.281 6.057 2.667 2.574 4.808 5.65 6.299 9.053 1.537 3.516 2.331 7.315 2.329 11.16 0 3.838-0.79 7.639-2.329 11.15-1.493 3.404-3.632 6.481-6.299 9.057-2.685 2.592-5.834 4.648-9.281 6.057-3.551 1.447-7.344 2.197-11.18 2.21-0.564 0.028-1.132 0.043-1.696 0.043-2.061 8e-3 -4.118-0.195-6.138-0.605-1.892-0.387-3.738-0.972-5.509-1.745-1.685-0.743-3.295-1.648-4.807-2.703-1.459-1.019-2.836-2.153-4.117-3.392-1.259-1.216-2.444-2.506-3.55-3.865-1.096-1.341-2.138-2.726-3.124-4.151-0.674-0.976-1.331-1.963-1.973-2.959v-18.81zm50.02 9.714v-4e-3 4e-3c0 2.443-0.504 4.862-1.484 7.1-0.966 2.201-2.351 4.191-4.075 5.857-1.77 1.709-3.847 3.064-6.12 3.991-2.437 0.996-5.046 1.497-7.676 1.475-0.491 0.032-0.975 0.047-1.461 0.047-1.39 5e-3 -2.778-0.131-4.141-0.405-1.2-0.246-2.371-0.619-3.494-1.112-1.091-0.48-2.131-1.065-3.109-1.745-1.026-0.716-1.994-1.513-2.895-2.383-0.97-0.943-1.887-1.941-2.744-2.99-0.929-1.137-1.81-2.312-2.644-3.522-0.893-1.288-1.756-2.597-2.588-3.926-0.579-0.916-1.146-1.842-1.715-2.763 1.001-1.625 2.049-3.219 3.142-4.783 0.902-1.295 1.859-2.55 2.867-3.764 0.944-1.139 1.956-2.219 3.031-3.233 1.016-0.957 2.107-1.83 3.262-2.61 1.134-0.764 2.339-1.417 3.597-1.95 1.323-0.557 2.7-0.978 4.108-1.256 1.616-0.312 3.258-0.464 4.904-0.456 2.588-4e-3 5.158 0.495 7.557 1.475 2.274 0.928 4.351 2.285 6.119 3.997 1.725 1.664 3.11 3.652 4.075 5.852 0.979 2.238 1.484 4.655 1.484 7.1v4e-3zm-50.02-9.714c-0.279-0.41-0.561-0.818-0.846-1.223-1.061-1.523-2.185-3.001-3.37-4.429-1.207-1.452-2.501-2.83-3.873-4.127-1.41-1.327-2.925-2.539-4.528-3.624-1.669-1.122-3.439-2.083-5.288-2.87-1.959-0.823-3.997-1.443-6.081-1.851-2.244-0.433-4.524-0.6479-6.808-0.643-3.872-0.0038-7.708 0.748-11.3 2.215-3.449 1.405-6.599 3.461-9.28 6.057-2.671 2.573-4.813 5.649-6.304 9.053-1.535 3.516-2.328 7.314-2.328 11.15s0.7927 7.638 2.328 11.15c1.493 3.405 3.635 6.482 6.304 9.057 2.683 2.592 5.83 4.648 9.275 6.057 3.554 1.448 7.344 2.197 11.18 2.21 0.5684 0.028 1.132 0.043 1.702 0.043 2.06 7e-3 4.116-0.195 6.136-0.605 1.892-0.388 3.738-0.973 5.509-1.745 1.683-0.744 3.292-1.649 4.802-2.703 1.462-1.019 2.84-2.153 4.123-3.392 1.256-1.218 2.441-2.509 3.549-3.865 1.095-1.341 2.135-2.726 3.12-4.151 0.674-0.976 1.334-1.962 1.978-2.959" clip-rule="evenodd" fill="url(#paint3_linear)" fill-rule="evenodd"/>
  <path d="m155.6 17v44.23c0 8.91 7.259 15.93 16.17 15.93l44.23-0.0112v-2l-60.4-58.15z" fill="#282828" opacity=".25"/>
  <path d="m155.6 15v44.23c0 8.91 7.259 15.93 16.17 15.93l44.23-0.0112-60.4-60.15z" fill="url(#paint4_linear)"/>
  <defs>
    <linearGradient id="paint0_linear" x1="126.4" x2="127.1" y1="14.91" y2="240.9" gradientUnits="userSpaceOnUse">
      <stop stop-color="#83a598" offset="0"/>
      <stop stop-color="#458588" offset="1"/>
    </linearGradient>
    <linearGradient id="paint2_linear" x1="126.8" x2="126.8" y1="119.4" y2="136" gradientUnits="userSpaceOnUse">
      <stop stop-color="#83a598" offset="0"/>
      <stop stop-color="#458588" offset="1"/>
    </linearGradient>
    <linearGradient id="paint3_linear" x1="127.3" x2="127.3" y1="99.98" y2="157.2" gradientUnits="userSpaceOnUse">
      <stop stop-color="#83a598" offset="0"/>
      <stop stop-color="#458588" offset="1"/>
    </linearGradient>
    <linearGradient id="paint4_linear" x1="185.4" x2="185.6" y1="14.98" y2="75.36" gradientUnits="userSpaceOnUse">
      <stop stop-color="#83a598" offset="0"/>
      <stop stop-color="#458588" offset="1"/>
    </linearGradient>
  </defs>
</svg>
